public/facebook.svg

<svg width="30" height="30" viewBox="0 0 30 30" fill="none" xmlns="http://www.w3.org/2000/svg">
<circle cx="15" cy="15" r="15" fill="white"/>
<path d="M20.9091 5H17.9339C16.6188 5 15.3575 5.52678 14.4276 6.46447C13.4976 7.40215 12.9752 8.67392 12.9752 10V13H10V17H12.9752V25H16.9421V17H19.9174L20.9091 13H16.9421V10C16.9421 9.73478 17.0466 9.48043 17.2326 9.29289C17.4186 9.10536 17.6709 9 17.9339 9H20.9091V5Z" stroke="black" stroke-linecap="round" stroke-linejoin="round"/>
</svg>

<svg xmlns="http://www.w3.org/2000/svg" width="30" height="30" fill="none"><circle cx="15" cy="15" r="15" fill="#fff"/><path stroke="#000" stroke-linecap="round" stroke-linejoin="round" d="M20.91 5h-2.976a4.94 4.94 0 0 0-3.506 1.464A5.02 5.02 0 0 0 12.975 10v3H10v4h2.975v8h3.967v-8h2.975l.992-4h-3.967v-3c0-.265.105-.52.29-.707A1 1 0 0 1 17.935 9h2.975z"/></svg>
